X:537
T:Dance
C:anon.
O:Balkans
Z:Transcribed by Frank Nordberg - http://www.musicaviva.com
F:http://abc.musicaviva.com/tunes/balkans/balkan-dance-01/balkan-dance-01-1.abc
M:4/4
L:1/8
Q:1/4=126
K:Am
A^c de fgf2|ed ^cde2e z|^cd ef edc2|ed ^c_B A2A z||
Ad ^cd efe2|gf ede2e z|fg fe d^cd2|^c_B AGA2A z||
A^c de fgf2|ed ^cde2e z|^cd ef edc2|ed ^c_B A2A z|]
W:
W:
W:  From Musica Viva - http://www.musicaviva.com
W:  the Internet center for free sheet music downloads.
